X:1
T:Der evangelische Kirchenchor
T:Wach auf, mein Herz
T:Satz: Max Reger
T:Text: Laurentius Laurenti
T:Wach auf, mein Herz
T:Nr. 12 aus Der evangelische Kirchenchor, WoO VI/17 
T:CPDL - Creative Commons Attribution Non Commercial 3.0
T:CPDL - Creative Commons Attribution Non Commercial 3.0
C:Max Reger
Z:Laurentius Laurenti
Z:CPDL - Creative Commons Attribution Non Commercial 3.0
%%score [ ( 1 2 ) ( 3 4 ) ]
L:1/8
Q:1/4=100
M:4/4
K:F
V:1 treble nm="S\nA"
V:2 treble 
V:3 bass nm="T\nB"
V:4 bass 
V:1
"^Etwas bewegt" z2!<(! c2 c2 c2 | c2!<)! _e2 d2!>(! c2 | B6!>)!!f!!<(! c2 | A2 F2!<)! A2 =B2 | %4
w: 1.~Wach auf, mein|Herz, die Nacht ist|hin, die|Sonn ist auf- ge-|
w: 2.~Steh aus dem|Grab der Sün- den|auf, und|such ein neu- es|
w: 3.~Sei hoch- ge-|lobt in die- ser|Zeit von|al- len Got- tes-|
!>(! (c2 d2) c4!>)! | z2!<(! c2 c2 c2 | c2!<)! _e2 d2!>(! c2 | B6!>)!!f!!<(! c2 | %8
w: gan- * gen.|Er- munt- re|dich mein Geist und|Sinn, den|
w: Le- * ben,|voll- füh- re|dei- nen Glau- bens-|lauf, und|
w: kin- * dern|und e- wig|in der Herr- lich-|keit von|
 A2 F2!<)! A2 =B2 |!>(! (c2 d2) c4!>)! | z2!mf!!<(! c2 f2 e2 | d2 e2 f2!<)! d2 |!f! c6!mf!!<(! c2 | %13
w: Hei- land zu em-|pfan- * gen,|der heu- te|durch des To- des|Tür ge-|
w: lass dein Herz sich|he- * ben|gen Him- mel,|da dein Je- sus|ist, und|
w: al- len Ü- ber-|win- * dern,|die ü- ber-|wun- den durch dein|Blut; Herr|
 f2!<)! e2 d2 A2 |!>(! G2 F2!>)!!p! E4 | z2!f!!<(! F2 G2 B2!<)! | %16
w: bro- chen aus dem|Grab her- für|der gan- zen|
w: such, was dro- ben,|als ein Christ,|der geist- lich|
w: Je- su, gib uns|Kraft und Mut,|dass wir auch|
 A2[Q:1/4=90]"^rit." G2 (F2!>(! G2) | F8!>)! |] %18
w: Welt zur Won- *|ne.|
w: auf- er- stan- *|den.|
w: ü- ber- win- *|den.|
V:2
 x2 E2 F2 G2 | F2 GA B2 A2 | F6 G2 | FE D2 F2 G2 | (G2 AG) E4 | x2 E2 F2 G2 | F2 GA B2 A2 | F6 G2 | %8
 FE D2 F2 G2 | (G2 AG) E4 | x2 G2 A2 A2 | F2 G2 A2 GF | E6 F2 | F2 G2 F2 FE | D2 DC =B,4 | %15
 x2 DC B,2 GF | _E2 =E2 (D2 E2) | C8 |] %18
V:3
 z2 G,2 A,2 CB, | A,2 C2 F2 F_E | D6 C2 | C2 D2 C2 D2 | (C3 =B,) G,4 | z2 G,2 A,2 CB, | %6
 A,2 C2 F2 F_E | D6 C2 | C2 D2 C2 D2 | (C3 =B,) G,4 | z2 C2 C2 C2 | B,2 B,2 C2 =B,2 | G,6 A,2 | %13
 A,2 C2 A,B, C2 | B,2 A,2 ^G,4 | z2 A,2 G,2 D2 | C2 B,2 (A,2 CB,) | A,8 |] %18
V:4
 x2 C,2 F,2 E,2 | F,2 C,2 D,_E, F,2 | B,,6 =E,2 | F,2 B,2 A,2 G,F, | (E,2 F,G,) C,4 | %5
 x2 C,2 F,2 E,2 | F,2 C,2 D,_E, F,2 | B,,6 =E,2 | F,2 B,2 A,2 G,F, | (E,2 F,G,) C,4 | %10
 x2 E,2 F,2 A,,2 | B,,2 G,2 F,2 G,2 | C,6 F,2 | D,2 E,2 F,G, A,2 | B,2 D,2 E,4 | x2 D,2 _E,2 B,,2 | %16
 C,2 ^C,2 (D,2 =C,2) | F,,8 |] %18

